X:1
T:Trip to Cannes
C:Conor Keane
M:6/8
L:1/8
K:G
B>G GB Ad |B>G GB AF |G>E EG FD|1 G>E EB Ad:|2 G>E EG FD|
E>F GB Ad| B>A GF ED| E>F GB Ad| B2 e2 d2|
E>F GB Ad| B>A GF ED|E/F/ G/E/ FA| G/A/ B/G/ Ad|
M:4/4
Be df ef ga||
